X:1
T:Terror Time
M:3/4
L:1/8
K:C
 C| C4 EF| G6-| G6| z4 G3/2 A/2| G/2 F3/2- F2 E2| F6-| F6| C4 EF| G4 c2|\
 _B6-| _B4 cB| A2 F2 FG| A3/2-G/2-F/2| G2-| G6| z4 GF| E3 CC D| F4- F-E/2-D/2|\
 E6-| E6| z2 G3 F| E/2 C3/2- C4| _B,6-| _B,4 C2| C6-| C4 z||
